X:1
T:Talmar, 87.87
T:Isaac Baker Woodbury, 1845
T:Talmar, 87.87
T:Public Domain
C:Isaac Baker Woodbury, 1845
Z:Public Domain
%%score ( 1 2 ) ( 3 4 )
L:1/8
M:3/2
K:E
V:1 treble 
V:2 treble 
V:3 bass 
V:4 bass 
V:1
 [EG]2 [EG]2 | [EG]4 E4 [DF]2 [DF]2 | [EG]4 [EG]4 [GB]2 [Ac]2 | [GB]4 [EG]4 E2 [EG]2 | %4
 [DF]8 [EG]2 [EG]2 | [EG]4 E4 [DF]2 [DF]2 | [EG]4 [EG]4 [GB]2 [Ac]2 | [GB]2 [EG]2 [EF]4 [DF]4 | %8
 E8 |] %9
V:2
 x4 | x4 E4 x4 | x12 | x8 E2 x2 | x12 | x4 E4 x4 | x12 | x12 | E8 |] %9
V:3
 [E,B,]2 [E,B,]2 | [E,B,]4 [G,B,]4 B,2 B,2 | [E,B,]4 [E,B,]4 [E,E]2 [E,E]2 | %3
 [E,E]4 [E,B,]4 [G,B,]2 [E,B,]2 | [B,,B,]8 [E,B,]2 [E,B,]2 | [E,B,]4 [G,B,]4 B,2 B,2 | %6
 [E,B,]4 [E,B,]4 [E,E]2 [E,E]2 | [E,E]2 [G,B,]2 B,4 [B,,A,]4 | [E,G,]8 |] %9
V:4
 x4 | x8 B,2 B,2 | x12 | x12 | x12 | x8 B,2 B,2 | x12 | x4 B,4 x4 | x8 |] %9

